public/images/icon-trailer--clay.svg

<svg width="19" height="15" viewBox="0 0 19 15" fill="none" xmlns="http://www.w3.org/2000/svg">
<path d="M0 0H16V10H19V12H8.75C8.75 12.0938 8.75 12.1562 8.75 12.25C8.75 13.7812 7.53125 15 6 15C4.46875 15 3.25 13.7812 3.25 12.25C3.25 12.1562 3.25 12.0938 3.25 12H0V0ZM9 10H13V7.5H11.5V6H13V3H9V10ZM7 3H3V7H7V3ZM6 13.5C6.6875 13.5 7.25 12.9375 7.25 12.25C7.25 11.5625 6.6875 11 6 11C5.3125 11 4.75 11.5625 4.75 12.25C4.75 12.9375 5.3125 13.5 6 13.5Z" fill="#9F7749"/>
</svg>

<svg width="19" height="15" viewBox="0 0 19 15" fill="none" xmlns="http://www.w3.org/2000/svg"><path d="M0 0h16v10h3v2H8.75v.25A2.734 2.734 0 0 1 6 15a2.734 2.734 0 0 1-2.75-2.75V12H0V0Zm9 10h4V7.5h-1.5V6H13V3H9v7ZM7 3H3v4h4V3ZM6 13.5c.688 0 1.25-.563 1.25-1.25C7.25 11.562 6.687 11 6 11c-.688 0-1.25.563-1.25 1.25 0 .688.563 1.25 1.25 1.25Z" fill="#9F7749"/></svg>
